**harmony	**harte	**kern	**silbe	**rhyme	**timestamp	**phrase
*M4/4	*M4/4	*ICvox	*	*	*	*
*	*	*VRlead	*	*	*	*
*	*	*Hstimme	*	*	*	*
*D:	*D:	*D:	*	*	*	*
1r;	1r	r;	.	.	0	.
=1	=1	=1	=1	=1	=1	=1
*>Letter>A	*>Letter>A	*>Letter>A	*>Letter>A	*>Letter>A	*>Letter>A	*>Letter>A
*>Label>Intro	*>Label>Intro	*>Label>Intro	*>Label>Intro	*>Label>Intro	*>Label>Intro	*>Label>Intro
*	*	*M4/4	*	*	*	*
*	*	*clefG2	*	*	*	*
1DM	D:maj	1r	.	.	0.395	newline
=2	=2	=2	=2	=2	=2	=2
1DM	D:maj	1r	.	.	1.887	.
=3	=3	=3	=3	=3	=3	=3
1DM	D:maj	1r	.	.	3.379	.
=4	=4	=4	=4	=4	=4	=4
1DM	D:maj	1r	.	.	4.871	.
=5	=5	=5	=5	=5	=5	=5
1BM	B:maj	1r	.	.	6.363	newline
=6	=6	=6	=6	=6	=6	=6
1BM	B:maj	1r	.	.	7.849	.
=7	=7	=7	=7	=7	=7	=7
1BM	B:maj	1r	.	.	9.335	.
=8	=8	=8	=8	=8	=8	=8
1BM	B:maj	1r	.	.	10.822	.
=9	=9	=9	=9	=9	=9	=9
1DM	D:maj	1r	.	.	12.308	newline
=10	=10	=10	=10	=10	=10	=10
1DM	D:maj	1r	.	.	13.766	.
=11	=11	=11	=11	=11	=11	=11
1DM	D:maj	1r	.	.	15.224	.
=12	=12	=12	=12	=12	=12	=12
1DM	D:maj	1r	.	.	16.683	.
=13	=13	=13	=13	=13	=13	=13
1BM	B:maj	1r	.	.	18.141	newline
=14	=14	=14	=14	=14	=14	=14
1BM	B:maj	1r	.	.	19.6	.
=15	=15	=15	=15	=15	=15	=15
1BM	B:maj	1r	.	.	21.058	.
=16	=16	=16	=16	=16	=16	=16
1BM	B:maj	1r	.	.	22.516	.
=17	=17	=17	=17	=17	=17	=17
*>Letter>A	*>Letter>A	*>Letter>A	*>Letter>A	*>Letter>A	*>Letter>A	*>Letter>A
*>Label>Verse	*>Label>Verse	*>Label>Verse	*>Label>Verse	*>Label>Verse	*>Label>Verse	*>Label>Verse
1DM	D:maj	4d	One	.	23.974	newline
.	.	4d	way	.	.	.
.	.	4r	.	.	.	.
.	.	8d	or	.	.	.
.	.	8c#	a-	.	.	.
=18	=18	=18	=18	=18	=18	=18
1DM	D:maj	4d	-not-	.	25.437	.
.	.	4d	-her:	.	.	.
.	.	8r	.	.	.	.
.	.	8d	I'm	.	.	.
.	.	8d	gon-	.	.	.
.	.	8c#	-na	.	.	.
=19	=19	=19	=19	=19	=19	=19
1DM	D:maj	4d	find	.	26.9	.
.	.	4d	ya.	.	.	.
.	.	8r	.	.	.	.
.	.	8d	I'm	.	.	.
.	.	8d	gon-	.	.	.
.	.	8c#	-na	.	.	.
=20	=20	=20	=20	=20	=20	=20
1DM	D:maj	8d	get-	.	28.363	.
.	.	8c#	-cha	.	.	.
.	.	8d	get-	.	.	.
.	.	8c#	-cha	.	.	.
.	.	8d	get-	.	.	.
.	.	8c#	-cha	.	.	.
.	.	8d	get-	.	.	.
.	.	8B	-cha.	.	.	.
=21	=21	=21	=21	=21	=21	=21
1BM	B:maj	4B	One	.	29.825	newline
.	.	4d	way	.	.	.
.	.	4r	.	.	.	.
.	.	8B	or	.	.	.
.	.	8A	a-	.	.	.
=22	=22	=22	=22	=22	=22	=22
1BM	B:maj	4B	-not-	.	31.322	.
.	.	4F#	-her:	.	.	.
.	.	8r	.	.	.	.
.	.	8B	I'm	.	.	.
.	.	8B	gon-	.	.	.
.	.	8A	-na	.	.	.
=23	=23	=23	=23	=23	=23	=23
1BM	B:maj	4B	win	.	32.819	.
.	.	4F#	ya.	.	.	.
.	.	8r	.	.	.	.
.	.	8A	I'm	.	.	.
.	.	8B	gon-	.	.	.
.	.	8A	-na	.	.	.
=24	=24	=24	=24	=24	=24	=24
1BM	B:maj	8d	get-	.	34.315	.
.	.	8c#	-cha	.	.	.
.	.	8d	get-	.	.	.
.	.	8c#	-cha	.	.	.
.	.	8d	get-	.	.	.
.	.	8c#	-cha	.	.	.
.	.	8d	get-	.	.	.
.	.	8c#	-cha.	.	.	.
=25	=25	=25	=25	=25	=25	=25
1DM	D:maj	4d	One	.	35.812	newline
.	.	4d	way	.	.	.
.	.	4r	.	.	.	.
.	.	8d	or	.	.	.
.	.	8c#	a-	.	.	.
=26	=26	=26	=26	=26	=26	=26
1DM	D:maj	4d	-no-	.	37.269	.
.	.	4d	-ther:	.	.	.
.	.	8r	.	.	.	.
.	.	8d	I'm	.	.	.
.	.	8d	gon-	.	.	.
.	.	8c#	-na	.	.	.
=27	=27	=27	=27	=27	=27	=27
1DM	D:maj	4d	see	.	38.726	.
.	.	4d	ya.	.	.	.
.	.	8r	.	.	.	.
.	.	8f#	I'm	.	.	.
.	.	8f#	gon-	.	.	.
.	.	8e	-na	.	.	.
=28	=28	=28	=28	=28	=28	=28
1DM	D:maj	8f#	meet-	.	40.183	.
.	.	8e	-cha	.	.	.
.	.	8f#	meet-	.	.	.
.	.	8e	-cha	.	.	.
.	.	8f#	meet-	.	.	.
.	.	8e	-cha	.	.	.
.	.	8f#	meet-	.	.	.
.	.	8d	-cha.	.	.	.
=29	=29	=29	=29	=29	=29	=29
1BM	B:maj	4B	One	.	41.639	newline
.	.	4d	day,	.	.	.
.	.	4r	.	.	.	.
.	.	8B	may-	.	.	.
.	.	8A	-be	.	.	.
=30	=30	=30	=30	=30	=30	=30
1BM	B:maj	4d	next	.	43.15	.
.	.	4B	week:	.	.	.
.	.	8r	.	.	.	.
.	.	8B	I'm	.	.	.
.	.	8B	gon-	.	.	.
.	.	8A	-na	.	.	.
=31	=31	=31	=31	=31	=31	=31
1BM	B:maj	4d	meet	.	44.662	.
.	.	4B	ya.	.	.	.
.	.	8r	.	.	.	.
.	.	8B	I'm	.	.	.
.	.	8d	gon-	.	.	.
.	.	8B	-na	.	.	.
=32	=32	=32	=32	=32	=32	=32
1BM	B:maj	8d	meet	.	46.173	.
.	.	8B	ya.	.	.	.
.	.	8r	.	.	.	.
.	.	8B	I'll	.	.	.
.	.	8d	meet	.	.	.
.	.	8B	ya.	.	.	.
.	.	4r	.	.	.	.
=33	=33	=33	=33	=33	=33	=33
*>Letter>B	*>Letter>B	*>Letter>B	*>Letter>B	*>Letter>B	*>Letter>B	*>Letter>B
*>Label>Chorus	*>Label>Chorus	*>Label>Chorus	*>Label>Chorus	*>Label>Chorus	*>Label>Chorus	*>Label>Chorus
1GM	G:maj	1G	I	.	47.684	newline
=34	=34	=34	=34	=34	=34	=34
1Bm	B:min	1B	will	.	49.196	.
=35	=35	=35	=35	=35	=35	=35
1AM	A:maj	4.c#	drive	.	50.709	.
.	.	4.B	past	.	.	.
.	.	4A	your	.	.	.
=36	=36	=36	=36	=36	=36	=36
1F#m	F#:min	2.F#	house;	A	52.222	.
.	.	4r	.	.	.	.
=37	=37	=37	=37	=37	=37	=37
1GM	G:maj	1G	And	.	53.734	newline
=38	=38	=38	=38	=38	=38	=38
1Bm	B:min	2B	if	.	55.24	.
.	.	4r	.	.	.	.
.	.	4B	the	.	.	.
=39	=39	=39	=39	=39	=39	=39
1AM	A:maj	4.c#	lights	.	56.747	.
.	.	4.B	are	.	.	.
.	.	4A	all	.	.	.
=40	=40	=40	=40	=40	=40	=40
1F#m	F#:min	2F#	down:	A	58.253	.
.	.	4r	.	.	.	.
.	.	4F#	I'll	.	.	.
=41	=41	=41	=41	=41	=41	=41
2GM	G:maj	4.G	see	.	59.759	newline
.	.	4.A	who's	.	.	.
4AM	A:maj	.	.	.	60.505	.
4Bm	B:min	4B	a-	.	60.879	.
=42	=42	=42	=42	=42	=42	=42
1Em	E:min	1E	-round.	A	61.252	.
=43	=43	=43	=43	=43	=43	=43
1F#M	F#:maj	1F#	_	.	62.745	.
=44	=44	=44	=44	=44	=44	=44
1F#M	F#:maj	1r	.	.	64.238	.
=45	=45	=45	=45	=45	=45	=45
*>Letter>A	*>Letter>A	*>Letter>A	*>Letter>A	*>Letter>A	*>Letter>A	*>Letter>A
*>Label>Verse	*>Label>Verse	*>Label>Verse	*>Label>Verse	*>Label>Verse	*>Label>Verse	*>Label>Verse
1DM	D:maj	4d	One	.	65.731	newline
.	.	4d	way	.	.	.
.	.	4r	.	.	.	.
.	.	8d	or	.	.	.
.	.	8c#	a-	.	.	.
=46	=46	=46	=46	=46	=46	=46
1DM	D:maj	4d	-not-	.	67.226	.
.	.	4d	-her:	.	.	.
.	.	8r	.	.	.	.
.	.	8d	I'm	.	.	.
.	.	8d	gon-	.	.	.
.	.	8c#	-na	.	.	.
=47	=47	=47	=47	=47	=47	=47
1DM	D:maj	4d	find	.	68.722	.
.	.	4d	ya.	.	.	.
.	.	8r	.	.	.	.
.	.	8f#	I'm	.	.	.
.	.	8f#	gon-	.	.	.
.	.	8e	-na	.	.	.
=48	=48	=48	=48	=48	=48	=48
1DM	D:maj	8f#	get-	.	70.217	.
.	.	8e	-cha	.	.	.
.	.	8f#	get-	.	.	.
.	.	8e	-cha	.	.	.
.	.	8f#	get-	.	.	.
.	.	8e	-cha	.	.	.
.	.	8f#	get-	.	.	.
.	.	8e	-cha.	.	.	.
=49	=49	=49	=49	=49	=49	=49
1BM	B:maj	4B	One	.	71.713	newline
.	.	4d	way	.	.	.
.	.	4r	.	.	.	.
.	.	8B	or	.	.	.
.	.	8A	a-	.	.	.
=50	=50	=50	=50	=50	=50	=50
1BM	B:maj	4B	-not-	.	73.202	.
.	.	4d	-her:	.	.	.
.	.	8r	.	.	.	.
.	.	8d	I'm	.	.	.
.	.	8d	gon-	.	.	.
.	.	8c#	-na	.	.	.
=51	=51	=51	=51	=51	=51	=51
1BM	B:maj	4d	win	.	74.691	.
.	.	4B	ya.	.	.	.
.	.	4r	.	.	.	.
.	.	8r	.	.	.	.
.	.	8d	I'll	.	.	.
=52	=52	=52	=52	=52	=52	=52
1BM	B:maj	8f#	get-	.	76.181	.
.	.	8d	-cha.	.	.	.
.	.	8r	.	.	.	.
.	.	8d	I'll	.	.	.
.	.	8f#	get-	.	.	.
.	.	8d	-cha.	.	.	.
.	.	4r	.	.	.	.
=53	=53	=53	=53	=53	=53	=53
1DM	D:maj	4d	One	.	77.67	newline
.	.	4d	way	.	.	.
.	.	4r	.	.	.	.
.	.	8d	or	.	.	.
.	.	8c#	a-	.	.	.
=54	=54	=54	=54	=54	=54	=54
1DM	D:maj	4d	-noth-	.	79.158	.
.	.	4d	-er	.	.	.
.	.	8r	.	.	.	.
.	.	8d	I'm	.	.	.
.	.	8d	gon-	.	.	.
.	.	8c#	-na	.	.	.
=55	=55	=55	=55	=55	=55	=55
1DM	D:maj	4d	see	.	80.647	.
.	.	4d	ya.	.	.	.
.	.	8r	.	.	.	.
.	.	8f#	I'm	.	.	.
.	.	8f#	gon-	.	.	.
.	.	8e	-na	.	.	.
=56	=56	=56	=56	=56	=56	=56
1DM	D:maj	8f#	meet-	.	82.135	.
.	.	8e	-cha	.	.	.
.	.	8f#	meet-	.	.	.
.	.	8e	-cha	.	.	.
.	.	8f#	meet-	.	.	.
.	.	8e	-cha	.	.	.
.	.	8f#	meet-	.	.	.
.	.	8e	-cha.	.	.	.
=57	=57	=57	=57	=57	=57	=57
1BM	B:maj	4B	One	.	83.624	newline
.	.	4d	day,	.	.	.
.	.	4r	.	.	.	.
.	.	8e	may-	.	.	.
.	.	8d	-be	.	.	.
=58	=58	=58	=58	=58	=58	=58
1BM	B:maj	8e	next	.	85.117	.
.	.	8B	week:	.	.	.
.	.	4r	.	.	.	.
.	.	8r	.	.	.	.
.	.	8e	I'm	.	.	.
.	.	8e	gon-	.	.	.
.	.	8d	-na	.	.	.
=59	=59	=59	=59	=59	=59	=59
1BM	B:maj	4e	meet	.	86.611	.
.	.	4B	ya.	.	.	.
.	.	4r	.	.	.	.
.	.	8r	.	.	.	.
.	.	8d	I'll	.	.	.
=60	=60	=60	=60	=60	=60	=60
1BM	B:maj	8e	meet	.	88.104	.
.	.	8B	ya	.	.	.
.	.	8r	.	.	.	.
.	.	[8B	aaa;	.	.	.
.	.	2B]	_	.	.	.
=61	=61	=61	=61	=61	=61	=61
*>Letter>B	*>Letter>B	*>Letter>B	*>Letter>B	*>Letter>B	*>Letter>B	*>Letter>B
*>Label>Chorus	*>Label>Chorus	*>Label>Chorus	*>Label>Chorus	*>Label>Chorus	*>Label>Chorus	*>Label>Chorus
1GM	G:maj	1G	And	.	89.597	newline
=62	=62	=62	=62	=62	=62	=62
1Bm	B:min	2B	if	.	91.1	.
.	.	4r	.	.	.	.
.	.	4B	the	.	.	.
=63	=63	=63	=63	=63	=63	=63
1AM	A:maj	4.c#	lights	.	92.602	.
.	.	4.B	are	.	.	.
.	.	4A	all	.	.	.
=64	=64	=64	=64	=64	=64	=64
1F#m	F#:min	2.F#	out:	A	94.104	.
.	.	4r	.	.	.	.
=65	=65	=65	=65	=65	=65	=65
1GM	G:maj	1G	I'll	.	95.606	newline
=66	=66	=66	=66	=66	=66	=66
1Bm	B:min	4.B	fo-	.	97.11	.
.	.	4.B	-llow	.	.	.
.	.	4r	.	.	.	.
=67	=67	=67	=67	=67	=67	=67
1AM	A:maj	4.c#	your	.	98.614	.
.	.	4.B	bus	.	.	.
.	.	[4A	down-	A	.	.
=68	=68	=68	=68	=68	=68	=68
1F#m	F#:min	8A]	_	.	100.117	.
.	.	[8F#	-town,	A	.	.
.	.	4F#]	_	.	.	.
.	.	4r	.	.	.	.
.	.	4F#	See	.	.	.
=69	=69	=69	=69	=69	=69	=69
2GM	G:maj	4.G	who's	.	101.621	newline
.	.	4.A	han-	.	.	.
4AM	A:maj	.	.	.	102.354	.
4Bm	B:min	4B	-ging	.	102.721	.
=70	=70	=70	=70	=70	=70	=70
1Em	E:min	1E	out	A	103.088	.
=71	=71	=71	=71	=71	=71	=71
1F#M	F#:maj	1F#	_	.	104.554	.
=72	=72	=72	=72	=72	=72	=72
1F#M	F#:maj	1r	.	.	106.021	.
=73	=73	=73	=73	=73	=73	=73
1F#M	F#:maj	1r	.	.	107.488	newline
=74	=74	=74	=74	=74	=74	=74
1F#M	F#:maj	1r	.	.	108.896	.
=75	=75	=75	=75	=75	=75	=75
*>Letter>C	*>Letter>C	*>Letter>C	*>Letter>C	*>Letter>C	*>Letter>C	*>Letter>C
*>Label>Solo	*>Label>Solo	*>Label>Solo	*>Label>Solo	*>Label>Solo	*>Label>Solo	*>Label>Solo
1F#M	F#:maj	1r	.	.	110.304	newline
=76	=76	=76	=76	=76	=76	=76
1F#M	F#:maj	1r	.	.	111.763	.
=77	=77	=77	=77	=77	=77	=77
1AM	A:maj	1r	.	.	113.222	.
=78	=78	=78	=78	=78	=78	=78
1C#m	C#:min	1r	.	.	114.681	.
=79	=79	=79	=79	=79	=79	=79
1F#M	F#:maj	1r	.	.	116.14	newline
=80	=80	=80	=80	=80	=80	=80
1F#M	F#:maj	1r	.	.	117.578	.
=81	=81	=81	=81	=81	=81	=81
1AM	A:maj	1r	.	.	119.016	.
=82	=82	=82	=82	=82	=82	=82
1C#m	C#:min	1r	.	.	120.454	.
=83	=83	=83	=83	=83	=83	=83
1BM	B:maj	1r	.	.	121.892	newline
=84	=84	=84	=84	=84	=84	=84
1EM	E:maj	1r	.	.	123.381	.
=85	=85	=85	=85	=85	=85	=85
1F#M	F#:maj	1r	.	.	124.871	.
=86	=86	=86	=86	=86	=86	=86
1F#M	F#:maj	1r	.	.	126.361	.
=87	=87	=87	=87	=87	=87	=87
1AM	A:maj	1r	.	.	127.851	newline
=88	=88	=88	=88	=88	=88	=88
1AM	A:maj	1r	.	.	129.316	.
=89	=89	=89	=89	=89	=89	=89
1BM	B:maj	1r	.	.	130.78	.
=90	=90	=90	=90	=90	=90	=90
1BM	B:maj	1r	.	.	132.245	.
=91	=91	=91	=91	=91	=91	=91
*>Letter>A	*>Letter>A	*>Letter>A	*>Letter>A	*>Letter>A	*>Letter>A	*>Letter>A
*>Label>Verse	*>Label>Verse	*>Label>Verse	*>Label>Verse	*>Label>Verse	*>Label>Verse	*>Label>Verse
1DM	D:maj	4f#	One	.	133.71	newline
.	.	2a	way	.	.	.
.	.	8f#	or	.	.	.
.	.	8e	a-	.	.	.
=92	=92	=92	=92	=92	=92	=92
1DM	D:maj	4f#	-not-	.	135.205	.
.	.	4d	-her:	.	.	.
.	.	8r	.	.	.	.
.	.	8f#	I'm	.	.	.
.	.	8f#	gon-	.	.	.
.	.	8e	-na	.	.	.
=93	=93	=93	=93	=93	=93	=93
1DM	D:maj	4f#	lo-	.	136.699	.
.	.	4d	-se.	.	.	.
.	.	8r	.	.	.	.
.	.	8e	I'm	.	.	.
.	.	8f#	gon-	.	.	.
.	.	8e	-na	.	.	.
=94	=94	=94	=94	=94	=94	=94
1DM	D:maj	8f#	give	.	138.193	.
.	.	8e	you	.	.	.
.	.	8f#	the	.	.	.
.	.	8d	slip.	B	.	.
.	.	2r	.	.	.	.
=95	=95	=95	=95	=95	=95	=95
1BM	B:maj	8f#	Slip	B	139.688	newline
.	.	8e	of	.	.	.
.	.	8f#	the	.	.	.
.	.	[8d	lip	B	.	.
.	.	4d]	_	.	.	.
.	.	8B	or	.	.	.
.	.	8A	a-	.	.	.
=96	=96	=96	=96	=96	=96	=96
1BM	B:maj	4B	-not-	.	141.171	.
.	.	4d	-her;	.	.	.
.	.	8r	.	.	.	.
.	.	8B	I'm	.	.	.
.	.	8B	gon-	.	.	.
.	.	8A	-na	.	.	.
=97	=97	=97	=97	=97	=97	=97
1BM	B:maj	4d	lose	.	142.655	.
.	.	4B	ya.	.	.	.
.	.	4r	.	.	.	.
.	.	8r	.	.	.	.
.	.	8f#	I'll	.	.	.
=98	=98	=98	=98	=98	=98	=98
1BM	B:maj	8a	trick	.	144.138	.
.	.	8f#	ya.	.	.	.
.	.	8r	.	.	.	.
.	.	8f#	I'll	.	.	.
.	.	8b	trick	.	.	.
.	.	8f#	ya.	.	.	.
.	.	4r	.	.	.	.
=99	=99	=99	=99	=99	=99	=99
1DM	D:maj	4d	One	.	145.621	newline
.	.	4d	way	.	.	.
.	.	4r	.	.	.	.
.	.	8d	or	.	.	.
.	.	8c#	a-	.	.	.
=100	=100	=100	=100	=100	=100	=100
1DM	D:maj	4d	-not-	.	147.1	.
.	.	4d	-her:	.	.	.
.	.	8r	.	.	.	.
.	.	8f#	I'm	.	.	.
.	.	8f#	gon-	.	.	.
.	.	8e	-na	.	.	.
=101	=101	=101	=101	=101	=101	=101
1DM	D:maj	4f#	lose	.	148.579	.
.	.	4d	ya.	.	.	.
.	.	8r	.	.	.	.
.	.	8f#	I'm	.	.	.
.	.	8f#	gon-	.	.	.
.	.	8e	-na	.	.	.
=102	=102	=102	=102	=102	=102	=102
1DM	D:maj	8f#	trick	.	150.058	.
.	.	8e	ya	.	.	.
.	.	8f#	trick	.	.	.
.	.	8e	ya	.	.	.
.	.	8f#	trick	.	.	.
.	.	8e	ya	.	.	.
.	.	8f#	trick	.	.	.
.	.	8e	ya.	.	.	.
=103	=103	=103	=103	=103	=103	=103
1BM	B:maj	4f#	One	.	151.537	newline
.	.	4B	way	.	.	.
.	.	4r	.	.	.	.
.	.	8f#	or	.	.	.
.	.	8e	a-	.	.	.
=104	=104	=104	=104	=104	=104	=104
1BM	B:maj	4f#	-noth-	.	153.014	.
.	.	4d#	-er:	.	.	.
.	.	8r	.	.	.	.
.	.	8f#	I'm	.	.	.
.	.	8f#	gon-	.	.	.
.	.	8e	-na	.	.	.
=105	=105	=105	=105	=105	=105	=105
1BM	B:maj	4f#	lose	.	154.492	.
.	.	4d	ya.	.	.	.
.	.	8r	.	.	.	.
.	.	8f#	I'm	.	.	.
.	.	8f#	gon-	.	.	.
.	.	8e	-na	.	.	.
=106	=106	=106	=106	=106	=106	=106
1BM	B:maj	8f#	give	.	155.97	.
.	.	8e	you	.	.	.
.	.	4f#	the	.	.	.
.	.	4d	slip.	.	.	.
.	.	4r	.	.	.	.
=107	=107	=107	=107	=107	=107	=107
*>Letter>A2	*>Letter>A2	*>Letter>A2	*>Letter>A2	*>Letter>A2	*>Letter>A2	*>Letter>A2
*>Label>Outro	*>Label>Outro	*>Label>Outro	*>Label>Outro	*>Label>Outro	*>Label>Outro	*>Label>Outro
1DM	D:maj	1r	.	.	157.448	newline
=108	=108	=108	=108	=108	=108	=108
1DM	D:maj	1r	.	.	158.918	.
=109	=109	=109	=109	=109	=109	=109
1BM	B:maj	1r	.	.	160.388	.
=110	=110	=110	=110	=110	=110	=110
1BM	B:maj	1r	.	.	161.858	.
=111	=111	=111	=111	=111	=111	=111
1DM	D:maj	4d	I'll	.	163.328	newline
.	.	4A	walk	.	.	.
.	.	8d	down	.	.	.
.	.	8d	the	.	.	.
.	.	4A	mall,	C	.	.
=112	=112	=112	=112	=112	=112	=112
1DM	D:maj	4d	Stand	.	164.814	.
.	.	8A	o-	.	.	.
.	.	8A	-ver	.	.	.
.	.	8d	by	.	.	.
.	.	8d	the	.	.	.
.	.	4A	wall	C	.	.
=113	=113	=113	=113	=113	=113	=113
1BM	B:maj	4B	where	.	166.299	.
.	.	8F#	I	.	.	.
.	.	8F#	can	.	.	.
.	.	8B	see	.	.	.
.	.	8B	it	.	.	.
.	.	4F#	all,	C	.	.
=114	=114	=114	=114	=114	=114	=114
1BM	B:maj	4B	Find	.	167.784	.
.	.	4F#	out	.	.	.
.	.	8B	who	.	.	.
.	.	8B	ya	.	.	.
.	.	4F#	call,	C	.	.
=115	=115	=115	=115	=115	=115	=115
1DM	D:maj	4d	Lead	.	169.27	newline
.	.	4A	you	.	.	.
.	.	4d	to	.	.	.
.	.	8A	the	.	.	.
.	.	8d	su-	.	.	.
=116	=116	=116	=116	=116	=116	=116
1DM	D:maj	8r	.	.	170.747	.
.	.	8d	-per-	.	.	.
.	.	8A	-mar-	.	.	.
.	.	8A	-ket	.	.	.
.	.	8d	check-	.	.	.
.	.	8d	-out.	A	.	.
.	.	8r	.	.	.	.
.	.	8F#	Some	.	.	.
=117	=117	=117	=117	=117	=117	=117
1BM	B:maj	8B	spe-	.	172.223	.
.	.	8B	-cials	.	.	.
.	.	4F#	and	.	.	.
.	.	4B	rat	.	.	.
.	.	4F#	food.	.	.	.
=118	=118	=118	=118	=118	=118	=118
1BM	B:maj	4B	get	.	173.7	.
.	.	4F#	lost	.	.	.
.	.	8B	in	.	.	.
.	.	8B	the	.	.	.
.	.	4F#	crowd.	A	.	.
=119	=119	=119	=119	=119	=119	=119
1DM	D:maj	4f#	One	.	175.177	newline
.	.	2a	way	.	.	.
.	.	8f#	or	.	.	.
.	.	8e	a-	.	.	.
=120	=120	=120	=120	=120	=120	=120
1DM	D:maj	4f#	-not-	.	176.669	.
.	.	4d	-her:	.	.	.
.	.	8r	.	.	.	.
.	.	8f#	I'm	.	.	.
.	.	8f#	gon-	.	.	.
.	.	8e	-na	.	.	.
=121	=121	=121	=121	=121	=121	=121
1BM	B:maj	8f#	get-	.	178.161	.
.	.	8d#	-cha.	.	.	.
.	.	8r	.	.	.	.
.	.	8e	I'll	.	.	.
.	.	8f#	get-	.	.	.
.	.	8d#	-cha.	.	.	.
.	.	8r	.	.	.	.
.	.	8e	I'll	.	.	.
=122	=122	=122	=122	=122	=122	=122
1BM	B:maj	8f#	get-	.	179.653	.
.	.	8e	-cha	.	.	.
.	.	8f#	get-	.	.	.
.	.	8e	-cha	.	.	.
.	.	8f#	get-	.	.	.
.	.	8e	-cha	.	.	.
.	.	8f#	get-	.	.	.
.	.	8e	-cha.	.	.	.
=123	=123	=123	=123	=123	=123	=123
1DM	D:maj	4f#	One	.	181.146	newline
.	.	2a	way	.	.	.
.	.	8f#	or	.	.	.
.	.	8e	a-	.	.	.
=124	=124	=124	=124	=124	=124	=124
1DM	D:maj	4f#	-not-	.	182.617	.
.	.	4d#	-her:	.	.	.
.	.	8r	.	.	.	.
.	.	8f#	I'm	.	.	.
.	.	8f#	gon-	.	.	.
.	.	8e	-na	.	.	.
=125	=125	=125	=125	=125	=125	=125
1BM	B:maj	8f#	get-	.	184.088	.
.	.	8d#	-cha.	.	.	.
.	.	8r	.	.	.	.
.	.	8e	I'll	.	.	.
.	.	8f#	get-	.	.	.
.	.	8d#	-cha.	.	.	.
.	.	8r	.	.	.	.
.	.	8e	I'll	.	.	.
=126	=126	=126	=126	=126	=126	=126
1BM	B:maj	8f#	get-	.	185.56	.
.	.	8e	-cha	.	.	.
.	.	8f#	get-	.	.	.
.	.	8e	-cha	.	.	.
.	.	8f#	get-	.	.	.
.	.	8e	-cha	.	.	.
.	.	8f#	get-	.	.	.
.	.	8e	-cha.	.	.	.
=127	=127	=127	=127	=127	=127	=127
1DM	D:maj	4f#	One	.	187.031	newline
.	.	2a	way	.	.	.
.	.	8f#	or	.	.	.
.	.	8e	a-	.	.	.
=128	=128	=128	=128	=128	=128	=128
1DM	D:maj	4f#	-not-	.	188.487	.
.	.	4d#	-her.	.	.	.
.	.	8r	.	.	.	.
.	.	8f#	I'm	.	.	.
.	.	8f#	gon-	.	.	.
.	.	8e	-na	.	.	.
=129	=129	=129	=129	=129	=129	=129
1BM	B:maj	8f#	get-	.	189.943	.
.	.	8d#	-cha.	.	.	.
.	.	8r	.	.	.	.
.	.	8e	I'll	.	.	.
.	.	8f#	get-	.	.	.
.	.	8d#	-cha.	.	.	.
.	.	8r	.	.	.	.
.	.	8e	I'll	.	.	.
=130	=130	=130	=130	=130	=130	=130
1BM	B:maj	8f#	get-	.	191.399	.
.	.	8e	-cha	.	.	.
.	.	8f#	get-	.	.	.
.	.	8e	-cha	.	.	.
.	.	8f#	get-	.	.	.
.	.	8e	-cha	.	.	.
.	.	8f#	get-	.	.	.
.	.	8e	-cha.	.	.	.
=131	=131	=131	=131	=131	=131	=131
*>Label>>Fadeout	*>Label>>Fadeout	*>Label>>Fadeout	*>Label>>Fadeout	*>Label>>Fadeout	*>Label>>Fadeout	*>Label>>Fadeout
1DM	D:maj	4f#	One	.	192.855	newline
.	.	2a	way	.	.	.
.	.	8f#	or	.	.	.
.	.	8e	a-	.	.	.
=132	=132	=132	=132	=132	=132	=132
1DM	D:maj	4f#	-not-	.	194.305	.
.	.	4d#	-her.	.	.	.
.	.	8r	.	.	.	.
.	.	8f#	I'm	.	.	.
.	.	8f#	gon-	.	.	.
.	.	8e	-na	.	.	.
=133	=133	=133	=133	=133	=133	=133
1BM	B:maj	8f#	get-	.	195.756	.
.	.	8d#	-cha.	.	.	.
.	.	8r	.	.	.	.
.	.	8e	I'll	.	.	.
.	.	8f#	get-	.	.	.
.	.	8d#	-cha.	.	.	.
.	.	8r	.	.	.	.
.	.	8e	I'll	.	.	.
=134	=134	=134	=134	=134	=134	=134
1BM	B:maj	8f#	get-	.	197.207	.
.	.	8e	-cha	.	.	.
.	.	8f#	get-	.	.	.
.	.	8e	-cha	.	.	.
.	.	8f#	get-	.	.	.
.	.	8e	-cha	.	.	.
.	.	8f#	get-	.	.	.
.	.	8e	-cha.	.	.	.
=135	=135	=135	=135	=135	=135	=135
1DM	D:maj	4f#	One	.	198.657	newline
.	.	2a	way	.	.	.
.	.	8f#	or	.	.	.
.	.	8e	a-	.	.	.
=136	=136	=136	=136	=136	=136	=136
1DM	D:maj	4f#	-not-	.	199.951	.
.	.	4d#	-her.	.	.	.
.	.	8r	.	.	.	.
.	.	8f#	I'm	.	.	.
.	.	8f#	gon-	.	.	.
.	.	8e	-na	.	.	.
=137	=137	=137	=137	=137	=137	=137
1BM	B:maj	8f#	get-	.	201.244	.
.	.	8d#	-cha.	.	.	.
.	.	8r	.	.	.	.
.	.	8e	I'll	.	.	.
.	.	8f#	get-	.	.	.
.	.	8d#	-cha.	.	.	.
.	.	8r	.	.	.	.
.	.	8e	I'll	.	.	.
=138	=138	=138	=138	=138	=138	=138
1BM	B:maj	8f#	get-	.	202.538	.
.	.	8e	-cha	.	.	.
.	.	8f#	get-	.	.	.
.	.	8e	-cha	.	.	.
.	.	8f#	get-	.	.	.
.	.	8e	-cha	.	.	.
.	.	8f#	get-	.	.	.
.	.	8e	-cha.	.	.	.
=139	=139	=139	=139	=139	=139	=139
1DM	D:maj	4f#	One	.	203.831	.
.	.	2a	way	.	.	.
.	.	8f#	or	.	.	.
.	.	8e	a-	.	.	.
1r;	1r	r;	.	.	205.125	.
1r;	1r	r;	.	.	208.091	.
*-	*-	*-	*-	*-	*-	*-
!!!BillboardChartDate: 1979/06/16
!!!BillboardPeak: 24
!!!BillboardWeeksOnChart: 14
!!!COC: Blondie
!!!ENC: Nathaniel Condit-Schultz
!!!EST: Awating manual error checking and editing.
!!!OTL: One Way Or Another
!!!RDF**chordsym: original McGill chord annotation + (implied pitch class set, with bass pitch in first position)
!!!RDF**harmony: **recip + pitch class of root + harmonic quality
!!!RDF**leadinstrument: original McGill primary instrumentation annotation
!!!RDF**phrase: newline = linebreak in original McGill transcription
!!!RDF**timestamp: McGill audio timestamp in seconds
!!!RDT: 2017/01/12/
!!!SampleActualRank: 47
!!!SampleID#: 0743
!!!SampleTargetRank: 48
!!!MBID: a8d7415e-c129-47d7-ba01-b4d253af8d6d